!!!OTL: Graf und Nonne (Die Nonne) Ich bin ein huebsch jung Weibchen
!!!ARE: Europa, Mitteleuropa, Deutschland (), Brandenburg, Berlin
!!!YOR: 8, S. 291
!!    1842 aufgezeichnet
!!!SCT: Q1155K.
!!!YEM: Copyright 1995, estate of Helmut Schaffrath.
**kern
*ICvox
*Ivox
*M6/8
*k[f#]
*G:
{8d
=1
4g
8d
8B
8d
8g
=2
8g
8f#
4.r}
{8d
=3
8d
8f#
8a
4dd
8cc
=4
4.b
4r}
{8b
=5
8b
8a
8g
8g
8f#
8e
=6
8e
8e
4.r}
{8e
=7
8d
8d
8d
8d
8e
8f#
=8
4g
8b
8b
8a}
{8g
=9
8f#
8e
8f#
8d
8e
8f#
=10
4.g
4r}
==
!!!AGN: Ehestands - Klage ???
!! Melodievergleich zu Q0155M., anderes Lied (genetisch verwandt ?).
!!    Anhaengsel an der vierten Zeile.
!!!ONB: ESAC (Essen Associative Code) Database: BALLADE
!!!AMT: compound duple
!!!AIN: vox
!!!EED: Helmut Schaffrath
!!!EEV: 1.0
*-
